X: 1546
T: My Sweetheart Jane
T: mo suiri.dea.c sineid.
R: reel
B: O'Neill's 1850 "Music of Ireland" #1546
O: J.O'Neill
Z: transcribed by John B. Walsh, walsh@math.ubc.ca 8/23/96
M: C|
L: 1/8
K: G
|: DGGF Adde | ABcA dBcA | DGGF Adde | fdcA [1 BGAF :|2 AGG2 |]| dggf g2ag | fdde fgaf |
| dggf gbag | fdcA dBcA || dggf g2ag | fdde fga2 | bgaf gdde | fdcA AGG2 |]
